icons/1_Primary/PostgreSQL.svg

<svg width="1024" height="1024" viewBox="0 0 1024 1024" fill="none" xmlns="http://www.w3.org/2000/svg">
<g clip-path="url(#clip0_2_3189)">
<path d="M512 1024C794.77 1024 1024 794.77 1024 512C1024 229.23 794.77 0 512 0C229.23 0 0 229.23 0 512C0 794.77 229.23 1024 512 1024Z" fill="#73ADA4"/>
<path d="M774.61 591.26C774.286 590.271 773.839 589.327 773.28 588.45C770 582.24 762 580.39 749.53 583C710.53 591 695.44 586.09 689.97 582.55C721.62 534.25 747.63 475.91 761.69 421.49C768.09 396.71 780.51 338.39 764.57 309.9C763.551 307.951 762.359 306.097 761.01 304.36C730.6 265.5 686.01 244.66 631.95 244.09C596.7 243.72 566.61 252.25 558.46 255.4C554.42 254.647 550.363 254.007 546.29 253.48C536.079 251.636 525.734 250.633 515.36 250.48C487.48 250.05 463.36 256.71 443.44 270.31C423.22 262.74 330.5 231.52 273.12 272.17C241.12 294.87 226.28 335.45 229.12 392.78C230.12 412.07 241.12 471.41 258.42 528.23C269.266 563.757 280.533 591.917 292.22 612.71C305.22 636.16 318.77 650.29 332.65 654.91C343.2 658.43 359.36 658.31 376.47 637.74C395.37 615.02 413.97 594.68 422.33 585.74C432.408 591.236 443.636 594.284 455.11 594.64C455.11 594.64 455.11 594.7 455.11 594.73C453.11 597.097 451.166 599.497 449.28 601.93C441.28 612.08 439.63 614.19 413.9 619.48C406.58 620.99 387.15 625 386.9 638.62C386.857 641.347 387.611 644.026 389.07 646.33C394.42 656.33 410.8 660.71 413.01 661.26C444.48 669.13 472.07 663.43 492.52 645.26C492.12 697.88 494.35 749.44 500.67 765.26C505.89 778.26 518.67 810.17 558.9 810.17C565.483 810.121 572.043 809.377 578.47 807.95C620.47 798.95 638.74 780.37 645.8 739.42C649.35 718.89 655.27 671.61 658.51 642.7C658.91 641.04 659.35 639.85 659.85 639.49C659.85 639.49 661.49 638.38 669.92 640.21C670.249 640.286 670.583 640.343 670.92 640.38L676.92 640.91H677.27C697.27 641.82 722.35 637.55 736.96 630.75C752.14 623.75 779.55 606.4 774.58 591.37L774.61 591.26ZM274.92 524.13C257.39 466.69 247.14 408.92 246.33 392.72C243.77 341.51 256.17 305.86 283.17 286.77C326.49 256.14 397.31 274.02 427.17 283.7L426.93 283.91C379.2 332.11 380.33 414.47 380.45 419.51C380.45 421.45 380.62 424.2 380.83 427.98C381.65 441.83 383.18 467.61 379.1 496.8C375.3 523.93 383.67 550.49 402.04 569.66C403.926 571.627 405.906 573.493 407.98 575.26C399.8 584.02 381.98 603.39 363.11 626.14C349.72 642.23 340.48 639.14 337.44 638.14C328.2 635.06 318.27 624.29 308.24 606.96C296.93 587.17 285.52 559.05 274.86 524.12L274.92 524.13ZM416.59 644.13C413.009 643.235 409.577 641.827 406.4 639.95C410.074 638.451 413.895 637.339 417.8 636.63C448.07 630.4 452.74 626 462.95 613.04C465.29 610.04 467.95 606.7 471.61 602.6C472.4 601.715 472.993 600.672 473.35 599.54C477.35 595.97 479.77 596.95 483.65 598.54C487.33 600.06 490.91 604.67 492.36 609.75C493.05 612.15 493.82 616.69 491.29 620.23C469.96 650.08 438.9 649.69 416.59 644.12V644.13ZM466 550.05L464.76 553.38C461.62 561.79 458.71 569.61 456.9 577.03C441.16 577.03 425.85 570.26 414.2 558.11C399.39 542.66 392.67 521.17 395.75 499.11C400.06 468.27 398.47 441.41 397.61 426.98C397.49 424.98 397.37 423.19 397.32 421.79C404.32 415.61 436.61 398.3 459.65 403.57C470.17 405.98 476.57 413.14 479.24 425.46C493.03 489.23 481.07 515.8 471.45 537.16C469.45 541.56 467.6 545.72 466 550.02V550.05ZM639.65 657.89C639.25 662.06 638.81 666.76 638.19 671.94L634.75 682.28C634.476 683.099 634.331 683.956 634.32 684.82C634.18 696.01 633.05 700.12 631.61 705.32C630.12 710.73 628.42 716.85 627.38 730.26C624.78 763.61 606.67 782.77 570.38 790.55C534.64 798.22 528.3 778.83 522.71 761.74C522.136 759.947 521.533 758.163 520.9 756.39C515.82 742.57 516.39 723.09 517.19 696.13C517.58 682.9 516.6 651.29 509.4 633.72C509.493 626.807 509.643 619.807 509.85 612.72C509.873 611.823 509.752 610.928 509.49 610.07C509.273 608.412 508.939 606.771 508.49 605.16C505.6 595.06 498.55 586.61 490.1 583.11C486.74 581.72 480.58 579.17 473.17 581.11C474.75 574.6 477.49 567.25 480.46 559.3L481.71 555.95C483.11 552.18 484.87 548.27 486.71 544.13C496.77 521.78 510.54 491.13 495.59 422.03C489.99 396.13 471.29 383.49 442.94 386.42C425.94 388.18 410.4 395.04 402.64 398.97C401.086 399.757 399.546 400.577 398.02 401.43C400.19 375.34 408.37 326.57 438.95 295.72C441.221 293.43 443.608 291.257 446.1 289.21C447.337 288.968 448.503 288.448 449.51 287.69C467.25 274.23 489.51 267.63 515.59 268.06C524.848 268.196 534.091 268.834 543.28 269.97C589.01 278.33 619.78 304.09 638.46 326.16C657.66 348.85 668.06 371.71 672.21 384.04C641 380.87 619.77 387.04 609.01 402.41C585.6 435.8 621.81 500.75 639.22 532C642.41 537.72 645.17 542.66 646.03 544.77C651.7 558.51 659.03 567.68 664.39 574.37C666.03 576.42 667.63 578.37 668.84 580.15C659.39 582.87 642.41 589.15 643.96 620.64C643.67 624.33 642.96 631.18 641.96 639.86C640.834 645.833 640.052 651.867 639.62 657.93L639.65 657.89ZM660.65 619.66C659.65 600.05 667 598 674.72 595.83C675.786 595.537 676.846 595.203 677.9 594.83C678.898 595.714 679.957 596.526 681.07 597.26C694.52 606.14 718.39 607.2 751.98 600.43C745.185 606.183 737.618 610.956 729.5 614.61C719.83 619.1 703.66 622.46 688.29 623.18C671.29 623.97 662.68 621.28 660.65 619.62V619.66ZM674.08 401C673.8 408.922 672.968 416.814 671.59 424.62C670.001 433.794 668.999 443.059 668.59 452.36C668.26 462.66 669.59 473.36 670.79 483.73C673.3 504.65 675.89 526.19 665.9 547.44C664.244 544.502 662.767 541.467 661.48 538.35C660.24 535.35 657.54 530.51 653.81 523.82C639.29 497.82 605.29 436.82 622.7 411.93C631.65 399.13 654.32 398.58 674.07 401.01L674.08 401ZM679.47 566.41L677.47 563.88L676.63 562.88C693.76 534.59 690.41 506.6 687.43 481.79C686.2 471.61 685.05 461.99 685.34 452.96C685.726 444.333 686.658 435.739 688.13 427.23C689.64 417.44 691.13 407.32 690.75 395.38C691.1 393.91 691.194 392.392 691.03 390.89C689.95 379.44 676.88 345.19 650.24 314.17C635.91 297.49 615.11 278.86 586.83 266.07C602.534 262.861 618.544 261.392 634.57 261.69C682.95 262.77 721.23 280.87 748.34 315.52C748.915 316.271 749.439 317.06 749.91 317.88C766.96 349.88 743.4 465.88 679.47 566.46V566.41ZM471.54 422.18C470.95 426.41 464.25 432.18 456.89 432.18C456.256 432.164 455.625 432.104 455 432C450.21 431.157 445.934 428.49 443.07 424.56C441.99 423.13 440.23 420.36 440.58 417.85C440.685 417.147 440.933 416.474 441.308 415.87C441.683 415.267 442.177 414.746 442.76 414.34C445.55 412.23 451.06 411.45 457.14 412.34C464.6 413.34 472.29 416.91 471.56 422.21L471.54 422.18ZM658.54 412.48C658.8 414.35 657.38 417.22 654.93 419.8C652.392 422.568 649.009 424.417 645.31 425.06C644.723 425.141 644.132 425.181 643.54 425.18C636.62 425.18 630.77 419.65 630.32 416.41C629.75 412.25 636.55 409.09 643.55 408.11C650.55 407.13 657.96 408.32 658.55 412.48H658.54Z" fill="white"/>
</g>
<defs>
<clipPath id="clip0_2_3189">
<rect width="1024" height="1024" fill="white"/>
</clipPath>
</defs>
</svg>

<svg xmlns="http://www.w3.org/2000/svg" width="1024" height="1024" fill="none">
   <g clip-path="url(#a)">
      <path fill="#73ADA4" d="M512 1024c282.77 0 512-229.23 512-512S794.77 0 512 0 0 229.23 0 512s229.23 512 512 512Z"/>
      <path fill="#fff" d="M774.61 591.26a12.424 12.424 0 0 0-1.33-2.81c-3.28-6.21-11.28-8.06-23.75-5.45-39 8-54.09 3.09-59.56-.45 31.65-48.3 57.66-106.64 71.72-161.06 6.4-24.78 18.82-83.1 2.88-111.59a36.927 36.927 0 0 0-3.56-5.54c-30.41-38.86-75-59.7-129.06-60.27-35.25-.37-65.34 8.16-73.49 11.31a221.595 221.595 0 0 0-12.17-1.92 189.794 189.794 0 0 0-30.93-3c-27.88-.43-52 6.23-71.92 19.83-20.22-7.57-112.94-38.79-170.32 1.86-32 22.7-46.84 63.28-44 120.61 1 19.29 12 78.63 29.3 135.45 10.846 35.527 22.113 63.687 33.8 84.48 13 23.45 26.55 37.58 40.43 42.2 10.55 3.52 26.71 3.4 43.82-17.17 18.9-22.72 37.5-43.06 45.86-52a73.204 73.204 0 0 0 32.78 8.9v.09c-2 2.367-3.944 4.767-5.83 7.2-8 10.15-9.65 12.26-35.38 17.55-7.32 1.51-26.75 5.52-27 19.14a13.997 13.997 0 0 0 2.17 7.71c5.35 10 21.73 14.38 23.94 14.93 31.47 7.87 59.06 2.17 79.51-16-.4 52.62 1.83 104.18 8.15 120 5.22 13 18 44.91 58.23 44.91a93.5 93.5 0 0 0 19.57-2.22c42-9 60.27-27.58 67.33-68.53 3.55-20.53 9.47-67.81 12.71-96.72.4-1.66.84-2.85 1.34-3.21 0 0 1.64-1.11 10.07.72.329.076.663.133 1 .17l6 .53h.35c20 .91 45.08-3.36 59.69-10.16 15.18-7 42.59-24.35 37.62-39.38l.03-.11Zm-499.69-67.13c-17.53-57.44-27.78-115.21-28.59-131.41-2.56-51.21 9.84-86.86 36.84-105.95 43.32-30.63 114.14-12.75 144-3.07l-.24.21c-47.73 48.2-46.6 130.56-46.48 135.6 0 1.94.17 4.69.38 8.47.82 13.85 2.35 39.63-1.73 68.82-3.8 27.13 4.57 53.69 22.94 72.86a80.982 80.982 0 0 0 5.94 5.6c-8.18 8.76-26 28.13-44.87 50.88-13.39 16.09-22.63 13-25.67 12-9.24-3.08-19.17-13.85-29.2-31.18-11.31-19.79-22.72-47.91-33.38-82.84l.06.01Zm141.67 120a38.28 38.28 0 0 1-10.19-4.18 57.25 57.25 0 0 1 11.4-3.32c30.27-6.23 34.94-10.63 45.15-23.59 2.34-3 5-6.34 8.66-10.44a8.38 8.38 0 0 0 1.74-3.06c4-3.57 6.42-2.59 10.3-1 3.68 1.52 7.26 6.13 8.71 11.21.69 2.4 1.46 6.94-1.07 10.48-21.33 29.85-52.39 29.46-74.7 23.89v.01ZM466 550.05l-1.24 3.33c-3.14 8.41-6.05 16.23-7.86 23.65-15.74 0-31.05-6.77-42.7-18.92-14.81-15.45-21.53-36.94-18.45-59 4.31-30.84 2.72-57.7 1.86-72.13-.12-2-.24-3.79-.29-5.19 7-6.18 39.29-23.49 62.33-18.22 10.52 2.41 16.92 9.57 19.59 21.89 13.79 63.77 1.83 90.34-7.79 111.7-2 4.4-3.85 8.56-5.45 12.86v.03Zm173.65 107.84c-.4 4.17-.84 8.87-1.46 14.05l-3.44 10.34a8.34 8.34 0 0 0-.43 2.54c-.14 11.19-1.27 15.3-2.71 20.5-1.49 5.41-3.19 11.53-4.23 24.94-2.6 33.35-20.71 52.51-57 60.29-35.74 7.67-42.08-11.72-47.67-28.81a170.69 170.69 0 0 0-1.81-5.35c-5.08-13.82-4.51-33.3-3.71-60.26.39-13.23-.59-44.84-7.79-62.41.093-6.913.243-13.913.45-21a8.342 8.342 0 0 0-.36-2.65 35.401 35.401 0 0 0-1-4.91c-2.89-10.1-9.94-18.55-18.39-22.05-3.36-1.39-9.52-3.94-16.93-2 1.58-6.51 4.32-13.86 7.29-21.81l1.25-3.35c1.4-3.77 3.16-7.68 5-11.82 10.06-22.35 23.83-53 8.88-122.1-5.6-25.9-24.3-38.54-52.65-35.61-17 1.76-32.54 8.62-40.3 12.55a127.884 127.884 0 0 0-4.62 2.46c2.17-26.09 10.35-74.86 40.93-105.71a94.95 94.95 0 0 1 7.15-6.51 8.33 8.33 0 0 0 3.41-1.52c17.74-13.46 40-20.06 66.08-19.63 9.258.136 18.501.774 27.69 1.91 45.73 8.36 76.5 34.12 95.18 56.19 19.2 22.69 29.6 45.55 33.75 57.88-31.21-3.17-52.44 3-63.2 18.37-23.41 33.39 12.8 98.34 30.21 129.59 3.19 5.72 5.95 10.66 6.81 12.77 5.67 13.74 13 22.91 18.36 29.6 1.64 2.05 3.24 4 4.45 5.78-9.45 2.72-26.43 9-24.88 40.49-.29 3.69-1 10.54-2 19.22a158.27 158.27 0 0 0-2.34 18.07l.03-.04Zm21-38.23c-1-19.61 6.35-21.66 14.07-23.83a46.365 46.365 0 0 0 3.18-1 28.171 28.171 0 0 0 3.17 2.43c13.45 8.88 37.32 9.94 70.91 3.17a95.37 95.37 0 0 1-22.48 14.18c-9.67 4.49-25.84 7.85-41.21 8.57-17 .79-25.61-1.9-27.64-3.56v.04ZM674.08 401a170.511 170.511 0 0 1-2.49 23.62 218.877 218.877 0 0 0-3 27.74c-.33 10.3 1 21 2.2 31.37 2.51 20.92 5.1 42.46-4.89 63.71a83.112 83.112 0 0 1-4.42-9.09c-1.24-3-3.94-7.84-7.67-14.53-14.52-26-48.52-87-31.11-111.89 8.95-12.8 31.62-13.35 51.37-10.92l.01-.01Zm5.39 165.41-2-2.53-.84-1c17.13-28.29 13.78-56.28 10.8-81.09-1.23-10.18-2.38-19.8-2.09-28.83a204.593 204.593 0 0 1 2.79-25.73c1.51-9.79 3-19.91 2.62-31.85.35-1.47.444-2.988.28-4.49-1.08-11.45-14.15-45.7-40.79-76.72-14.33-16.68-35.13-35.31-63.41-48.1a218.193 218.193 0 0 1 47.74-4.38c48.38 1.08 86.66 19.18 113.77 53.83.575.751 1.099 1.54 1.57 2.36 17.05 32-6.51 148-70.44 248.58v-.05ZM471.54 422.18c-.59 4.23-7.29 10-14.65 10A13.6 13.6 0 0 1 455 432a18.792 18.792 0 0 1-11.93-7.44c-1.08-1.43-2.84-4.2-2.49-6.71a5.212 5.212 0 0 1 2.18-3.51c2.79-2.11 8.3-2.89 14.38-2 7.46 1 15.15 4.57 14.42 9.87l-.02-.03Zm187-9.7c.26 1.87-1.16 4.74-3.61 7.32a17.002 17.002 0 0 1-9.62 5.26c-.587.081-1.178.121-1.77.12-6.92 0-12.77-5.53-13.22-8.77-.57-4.16 6.23-7.32 13.23-8.3 7-.98 14.41.21 15 4.37h-.01Z"/>
   </g>
   <defs>
      <clipPath id="a">
         <path fill="#fff" d="M0 0h1024v1024H0z"/>
      </clipPath>
   </defs>
</svg>
